%
(Header)
(Generated by gcodetools from Inkscape.)
(Using default header. To add your own header create file "header" in the output dir.)
M3
(Header end.)
G21 (All units in mm)

(Start cutting path id: path10)
(Change tool to Default tool)

G00 Z5.000000
G00 X19.541817 Y21.841156

G01 Z-0.125000 F100.0(Penetrate)
G02 X18.399705 Y22.195344 Z-0.125000 I-0.440771 J0.597211 F400.000000
G02 X18.416486 Y23.289642 Z-0.125000 I1.512452 J0.524084
G02 X20.310701 Y24.662304 Z-0.125000 I1.995862 J-0.760904
G02 X22.514060 Y24.034826 Z-0.125000 I0.170693 J-3.582852
G02 X24.192820 Y20.813288 Z-0.125000 I-2.195673 J-3.192350
G02 X22.917809 Y17.495710 Z-0.125000 I-5.052722 J0.038065
G02 X18.242230 Y15.509129 Z-0.125000 I-4.432825 J3.937547
G02 X13.597331 Y17.453817 Z-0.125000 I0.296137 J7.226855
G02 X11.250995 Y23.360984 Z-0.125000 I5.089965 J5.441310
G02 X13.915164 Y29.083564 Z-0.125000 I8.640812 J-0.541316
G02 X21.358287 Y31.753239 Z-0.125000 I6.730407 J-7.053902
G02 X28.458547 Y28.422123 Z-0.125000 I-0.802038 J-10.942186
G02 X31.500927 Y19.830997 Z-0.125000 I-7.937838 J-7.645294
G02 X27.419132 Y11.701756 Z-0.125000 I-12.234884 J1.053910
G02 X17.209172 Y8.334835 Z-0.125000 I-9.004773 J10.142399
G02 X7.652844 Y13.066498 Z-0.125000 I1.307565 J14.656906
G02 X3.906065 Y24.341663 Z-0.125000 I10.769234 J9.838774
G02 X9.413841 Y34.877496 Z-0.125000 I15.826655 J-1.566082
G02 X22.390646 Y38.946828 Z-0.125000 I11.271933 J-13.219668
G02 X34.403032 Y32.809441 Z-0.125000 I-1.811445 J-18.369747
G02 X38.857785 Y18.850070 Z-0.125000 I-13.593354 J-12.028440
G02 X31.920456 Y5.907813 Z-0.125000 I-19.416682 J2.077353
G02 X16.176721 Y1.133598 Z-0.125000 I-13.536040 J16.291404
G02 X1.708359 Y8.679169 Z-0.125000 I2.314146 J22.081361
G00 Z5.000000

(End cutting path id: path10)


(Footer)
M5
G00 X0.0000 Y0.0000
M2
(Using default footer. To add your own footer create file "footer" in the output dir.)
(end)
%